media/img/icons/m24-small/curve-arrow1.svg

<svg xmlns="http://www.w3.org/2000/svg" width="24" height="24" viewBox="0 0 24 24">
  <path fill="#010101" d="M4.64 21.62Zm16.77-7.89L11.93 2.46 2.46 13.73h8.28v-.01.01c-.323 3.128-2.956 5.506-6.1 5.51v2.38c4.68 0 8.48-3.54 8.48-7.9 1.531-.037 8.29.01 8.29.01Zm-5.13-2.4h-8.7l4.35-5.17 4.35 5.17Z"/>
</svg>

<?xml version="1.0" encoding="utf-8"?>
<svg xmlns="http://www.w3.org/2000/svg" id="Layer_1" viewBox="0 0 24 24" width="24px" height="24px">
  <defs>
    <style>.cls-1{fill:#010101}</style>
  </defs>
  <path d="M 4.64 21.62 Z M 21.41 13.73 L 11.93 2.46 L 2.46 13.73 L 10.74 13.73 L 10.74 13.72 L 10.74 13.73 C 10.417 16.858 7.784 19.236 4.64 19.24 L 4.64 21.62 C 9.32 21.62 13.12 18.08 13.12 13.72 C 14.651 13.683 21.41 13.73 21.41 13.73 L 21.41 13.73 Z M 16.28 11.33 L 7.58 11.33 L 11.93 6.16 L 16.28 11.33 Z" class="cls-1"/>
</svg>
